icons/solid/camera.svg

<svg width="24" height="24" viewBox="0 0 24 24" fill="none" xmlns="http://www.w3.org/2000/svg">
<path fill-rule="evenodd" clip-rule="evenodd" d="M7.57422 4.3359C8.13061 3.5013 9.06731 3 10.0704 3H13.9296C14.9327 3 15.8694 3.5013 16.4258 4.3359L17.2383 5.5547C17.4238 5.8329 17.736 6 18.0704 6H19C20.6569 6 22 7.34315 22 9V18C22 19.6569 20.6569 21 19 21H5C3.34315 21 2 19.6569 2 18V9C2 7.34315 3.34315 6 5 6H5.92963C6.26399 6 6.57622 5.8329 6.76168 5.5547L7.57422 4.3359ZM9 13C9 11.3431 10.3431 10 12 10C13.6569 10 15 11.3431 15 13C15 14.6569 13.6569 16 12 16C10.3431 16 9 14.6569 9 13Z" fill="currentColor"/>
</svg>

<svg width="24" height="24" fill="none" xmlns="http://www.w3.org/2000/svg"><path fill-rule="evenodd" clip-rule="evenodd" d="M7.574 4.336A3 3 0 0110.07 3h3.86a3 3 0 012.496 1.336l.812 1.219A1 1 0 0018.07 6H19a3 3 0 013 3v9a3 3 0 01-3 3H5a3 3 0 01-3-3V9a3 3 0 013-3h.93a1 1 0 00.832-.445l.812-1.22zM9 13a3 3 0 116 0 3 3 0 01-6 0z" fill="currentColor"/></svg>
